X: 29517
T: Ninetieth
R: jig
M: 6/8
K: Gmajor
||Bc|"G" dfg "C" cfg|"G" Bfg "C" edc|"Em"BGB "Am"cAc|"G" dcB "D7" ADc|
"G" dfg "C" cfg|"G" Bfg "C" edc|"G"dBd "D7"cAF|"D7" dBA "G" GFG|
"G" dfg "C" cfg|"G" Bfg "C" edc|"Em"BGB "Am"cAc|"G" dcB "D7" ADc|
"Em" BGE "D7" cAF|"G" dBG "C" efg|"G"dBd "D7"cAF|"D7" dBA "G" G|
FG|"D7" AFD ABc|"G" dBG Bcd|"C" ece "G"dBd|"Am"cBA GFE|
"D7" DAA ABc|"G" dBG "C" efg|"G"dBd "D7"cAF|"D7" DBA "G" G|

